**kern	**kern
*staff1	*staff2
*clefG2	*clefG2
*k[b-]	*k[b-]
*M2/4	*M2/4
*F:	*F:
16r	8C 8G 8B-
(16bLL	.
16dd	8r
16ccJJ)	.
16r	8C 8G 8B-
(16dd#LL	.
16ee	8r
16ccJJ)	.
=92	=92
16r	8C 8F 8A
(16eeLL	.
16ff	8r
16ccJJ)	.
16r	8C 8F 8A
(16gg#LL	.
16aa	8r
16ccJJ)	.
=93	=93
16r	8C 8E 8G
(16bbLL	.
16ccc	8r
16ccJJ)	.
16r	8C 8E 8G
(16aaLL	.
16bb-	8r
16ccJJ)	.
=94	=94
16r	8F 8A
(16gg#LL	.
16bb-	8r
16aaJJ	.
16ggLL	4r
16ff	.
16ee	.
16ddJJ)	.
*	*clefG2
=95	=95
16r	8c 8g 8b-
(16bLL	.
16dd	8r
16ccJJ)	.
16r	8c 8g 8b-
(16dd#LL	.
16ff	8r
16eeJJ)	.
=96	=96
16r	8f 8a
(16eeLL	.
16gg	8r
16ffJJ)	.
16r	8d 8f 8a
16gg#LL	.
16aa	8r
16ffJJ	.
=97	=97
16r	8B- 8d 8g
(16ccc#LL	.
16ddd	8r
16ggJJ)	.
16r	8c 8g 8b-
(16aaLL	.
16bb-	8r
16eeJJ)	.
=98	=98
16r	8f 8a
(16eeLL	.
*	*clefF4
16ff	8r
16ccJJ)	.
16r	8C 8E
(16aLL	.
16b-	8r
16gJJ)	.
=99	=99
8f	8FF 8F
8r	8r
4r	4r
==100||	==100||
*-	*-
